X: 11642
Q: "Lively."
M: 6/8
L: 1/8
K: Eb
(B,C)E E2F | G2A (GF)E | (B,C)E E2F | G2c B2G |\
(B,C)E E2F | G2A (GF)E | G>FE (cd)e | (BA)G {G}F2E |]
(GA)B E2G | (AB)c (cB)A | (GA)B E2c | {c}B2G {G}F2E |\
(GA)B E2B | cde c2B | ez cB zG | (GF)E {G}F2E |]


